X:1
T:Christ, Whose Glory Fills the Skies
T:Text: Charles Wesley, 1740 Tune: Charles F. Gounod, 1872
T:77 77 77 LUX PRIMA www.hymnary.org/text/christ_whose_glory_fills_the_skies
T:Christ, Whose Glory Fills the Skies
T:This hymn is in the public domain. You may freely use this score for personal and congregational worship. If you reproduce the score, please credit Hymnary.org as the source. 
T:This hymn is in the public domain. You may freely use this score for personal and congregational worship. If you reproduce the score, please credit Hymnary.org as the source. 
Z:This hymn is in the public domain. You may freely use this score for personal and congregational worship. If you reproduce the score, please credit Hymnary.org as the source.
%%score ( 1 2 ) ( 3 4 )
L:1/8
M:4/4
K:F
V:1 treble nm="SOPRANO ALTO" snm="S. A."
V:2 treble 
V:3 bass nm="TENOR BASS" snm="T. B."
V:4 bass 
V:1
"^1""^2""^3" F2 F2 F2 AG | F2 E2 (F2 C2) | A2 A2 A2 =cB | A2 G2 A4 | c2 F2 B2 B2 | AG AB (A2 G2) | %6
w: Christ, whose glo- ry *|fills the skies, *|Christ, the true and *|on- ly Light,|Sun of Right- eous-|ness, * a- * rise, *|
w: Dark and cheer- less *|is the morn *|un- ac- com- pa- *|nied by thee;|joy- less is the|day's * re- * turn *|
w: Vis- it, then, this *|soul of mine, *|pierce the gloom of *|sin and grief;|fill me, Ra- dian-|cy * di- * vine, *|
 G2 A2 B2 AG | F2 G2 A4 |1 A2 B2 c2 BA | G2 A2 B4 | d2 c2 B2 AG | A2 G2 F4 |] %12
w: tri- umph o'er the *|shades of night;|Day- spring from on *|high, be near;|Day- star, in my *|heart ap- pear.|
w: till thy mer- cy's *|beams I see,|till they in- ward *|light im- part,|glad my eyes and *|warm my heart.|
w: scat- ter all my *|un- be- lief;|more and more thy- *|self dis- play,|shin- ing to the *|per- fect day!|
V:2
 C2 C2 D2 D2 | C2 C2 C4 | C2 ^C2 D2 AG | F2 E2 F4 | F2 F2 F2 E2 | FE FG (F2 E2) | E2 F2 D2 E2 | %7
 C2 E2 F4 |1 F2 F2 F2 F2 | F2 F2 F4 | ^F2 F2 G2 =F2 | F2 E2 F4 |] %12
V:3
 A,2 A,2 A,2 CB, | A,2 G,2 A,4 | A,2 G,2 F,2 D2 | C2 C2 C4 | C2 C2 D2 C2 | C2 C2 C4 | %6
 B,2 A,2 G,2 B,2 | A,2 C2 C4 |1 C2 D2 _E2 DC | B,2 C2 B,4 | A,2 A,2 B,2 CD | C2 B,2 A,4 |] %12
V:4
 F,2 E,2 D,2 B,,2 | C,2 C,2 F,4 | F,2 E,2 D,2 B,,2 | C,2 C,2 F,4 | A,2 A,2 G,2 G,2 | F,2 F,2 C,4 | %6
 C,2 C,2 C,2 C,2 | C,2 C,2 F,4 |1 F,2 F,2 F,2 F,2 | F,2 _E,2 D,4 | D,2 D,2 G,,2 A,,B,, | %11
 C,2 C,2 F,,4 |] %12

